src/img/monitor png Senior engineers.svg

<?xml version="1.0" encoding="utf-8"?>
<!-- Generator: Adobe Illustrator 23.0.1, SVG Export Plug-In . SVG Version: 6.00 Build 0)  -->
<svg version="1.1" id="Слой_1" xmlns="http://www.w3.org/2000/svg" xmlns:xlink="http://www.w3.org/1999/xlink" x="0px" y="0px"
	 width="80px" height="80px" viewBox="0 0 80 80" style="enable-background:new 0 0 80 80;" xml:space="preserve">
<style type="text/css">
	.st0{fill:#FF5555;}
</style>
<path d="M69.4,68.1c3,0,5.5-2.5,5.5-5.5V26.5c0-3-2.5-5.5-5.5-5.5h-6.6v2h6.6c1.9,0,3.5,1.6,3.5,3.5v30.6H7.1V26.5
	c0-1.9,1.6-3.5,3.5-3.5h6.6v-2h-6.6c-3,0-5.5,2.5-5.5,5.5v36.1c0,3,2.5,5.5,5.5,5.5h14.8v4.8h-4.5v2h38.1v-2h-4.5v-4.8H69.4z
	 M52.5,72.9H27.5v-4.8h25.1V72.9z M10.6,66.1c-1.9,0-3.5-1.6-3.5-3.5v-3.5h65.7v3.5c0,1.9-1.6,3.5-3.5,3.5H10.6z"/>
<rect x="63.8" y="61.6" width="2" height="2"/>
<rect x="68.4" y="61.6" width="2" height="2"/>
<rect x="59.3" y="61.6" width="2" height="2"/>
<rect x="48.3" y="13" transform="matrix(0.3827 -0.9239 0.9239 0.3827 17.664 54.2222)" class="st0" width="2.2" height="1.8"/>
<rect x="16.4" y="26.1" transform="matrix(0.3828 -0.9238 0.9238 0.3828 -14.4641 32.7543)" class="st0" width="1.8" height="2.2"/>
<rect x="29.7" y="12.8" transform="matrix(0.9238 -0.3829 0.3829 0.9238 -2.9879 12.7701)" class="st0" width="1.8" height="2.2"/>
<path class="st0" d="M59.2,14.3c-1.7,0-3.1,1.4-3.1,3.1c0,0.5,0.1,0.9,0.3,1.3l0.1,0.2L56.4,19l-4.4,4.4l-0.2-0.2
	c-1.2-1.1-2.5-1.9-3.9-2.6l-0.2-0.1l1.1-2.5L47,17.3L46,19.9l-0.2-0.1c-1.5-0.5-3.1-0.8-4.7-0.9l-0.2,0v-7.4l0.2-0.1
	c1.3-0.4,2.1-1.6,2.1-2.9c0-1.7-1.4-3.1-3.1-3.1s-3.1,1.4-3.1,3.1c0,1.3,0.8,2.5,2.1,2.9l0.2,0.1v7.4l-0.2,0
	c-1.6,0.1-3.2,0.4-4.7,0.9L34,19.9L33,17.3L31.3,18l1.1,2.5l-0.2,0.1c-1.4,0.7-2.8,1.6-3.9,2.6l-0.2,0.2l-4.5-4.5l0.1-0.2
	c0.2-0.4,0.3-0.9,0.3-1.3c0-1.7-1.4-3.1-3.1-3.1s-3.1,1.4-3.1,3.1s1.4,3.1,3.1,3.1c0.5,0,0.9-0.1,1.3-0.3l0.2-0.1l4.5,4.5l-0.2,0.2
	c-1.1,1.2-1.9,2.5-2.6,3.9L23.9,29l-2.5-1.1l-0.7,1.6l2.5,1.1l-0.1,0.2c-0.6,1.9-1,3.8-1,5.8c0,9.8,8,17.8,17.8,17.8
	s17.8-8,17.8-17.8c0-1.9-0.3-3.9-1-5.8l-0.1-0.2l2.5-1.1l-0.7-1.6L56.1,29L56,28.8c-0.7-1.4-1.6-2.8-2.6-3.9l-0.2-0.2l0.1-0.1
	l4.4-4.4l0.2,0.1c0.4,0.2,0.9,0.3,1.3,0.3c1.7,0,3.1-1.4,3.1-3.1S60.9,14.3,59.2,14.3z M20.8,18.8c-0.8,0-1.4-0.6-1.4-1.4
	S20,16,20.8,16s1.4,0.6,1.4,1.4S21.6,18.8,20.8,18.8z M38.6,8.4C38.6,7.6,39.2,7,40,7c0.8,0,1.4,0.6,1.4,1.4S40.8,9.8,40,9.8
	C39.2,9.8,38.6,9.1,38.6,8.4z M25.1,42.6c-0.8-1.9-1.2-3.9-1.2-6c0-5.3,2.6-10.2,7-13.2l0.2-0.1l3.5,3.5c0.7,0.7,1.2,1.7,1.2,2.8
	c0,1.8-1.2,3.3-2.9,3.8l-1,0.3c-2.4,0.7-4,2.9-4,5.3c0,1.1-0.5,2.1-1.3,2.9l-1.3,1.1L25.1,42.6z M48.2,50.4
	c-2.5,1.5-5.3,2.3-8.2,2.3c-3,0-6-0.9-8.5-2.5L31.2,50l1.8-1.8c1.4-1.4,2.2-3.4,2.2-5.4v-1.7c0-0.8,0.6-1.4,1.4-1.4
	c0.8,0,1.4,0.6,1.4,1.4c0,3,2.4,5.4,5.4,5.4h0.2c1.1,0,2.1,0.5,2.8,1.3l2.1,2.5L48.2,50.4z M53.4,45.4c-0.9,1.4-2,2.6-3.3,3.7
	l-0.2,0.2l-2.2-2.6c-1-1.2-2.5-1.9-4.1-1.9h-0.2c-2,0-3.6-1.6-3.6-3.6c0-1.7-1.4-3.1-3.1-3.1c-1.7,0-3.1,1.4-3.1,3.1v1.7
	c0,1.6-0.6,3.1-1.7,4.2l-2,2l-0.2-0.2c-1.4-1.2-2.5-2.5-3.4-4.1l-0.1-0.2l1.6-1.4c1.2-1,1.9-2.6,1.9-4.2c0-1.7,1.1-3.2,2.7-3.6
	l1-0.3c2.4-0.7,4.1-3,4.1-5.5c0-1.5-0.6-3-1.7-4l-3.2-3.2l0.3-0.2c2.2-1.1,4.6-1.7,7-1.7c0.5,0,1,0,1.5,0.1l0.4,0l-0.6,1.3
	c-0.7,1.3-1,2.8-1,4.3c0,3.2,1.6,6.2,4.3,8l0.6,0.4c1.1,0.8,1.8,2,1.8,3.4c0,2.2,1.2,4.1,3.1,5.2l3.5,1.9L53.4,45.4z M56.1,36.6
	c0,2.4-0.5,4.7-1.5,6.8l-0.1,0.2l-3.5-1.9c-1.3-0.7-2.1-2.1-2.1-3.6c0-2-1-3.8-2.6-4.9l-0.6-0.4c-2.2-1.5-3.5-3.9-3.5-6.6
	c0-1.2,0.3-2.4,0.8-3.5l0.9-1.7l0.2,0C51.1,22.9,56.1,29.2,56.1,36.6z M59.2,18.8c-0.8,0-1.4-0.6-1.4-1.4s0.6-1.4,1.4-1.4
	s1.4,0.6,1.4,1.4S60,18.8,59.2,18.8z"/>
<rect x="61.6" y="26.3" transform="matrix(0.9238 -0.3828 0.3828 0.9238 -5.6356 26.0778)" class="st0" width="2.2" height="1.8"/>
</svg>

<svg width="80" height="80" viewBox="0 0 80 80" fill="none" xmlns="http://www.w3.org/2000/svg">
<path d="M69.4 68.1C72.4 68.1 74.9 65.6 74.9 62.6V26.5C74.9 23.5 72.4 21 69.4 21H62.8V23H69.4C71.3 23 72.9 24.6 72.9 26.5V57.1H7.09998V26.5C7.09998 24.6 8.69998 23 10.6 23H17.2V21H10.6C7.59998 21 5.09998 23.5 5.09998 26.5V62.6C5.09998 65.6 7.59998 68.1 10.6 68.1H25.4V72.9H20.9V74.9H59V72.9H54.5V68.1H69.4ZM52.5 72.9H27.5V68.1H52.6V72.9H52.5ZM10.6 66.1C8.69998 66.1 7.09998 64.5 7.09998 62.6V59.1H72.8V62.6C72.8 64.5 71.2 66.1 69.3 66.1H10.6Z" fill="black"/>
<path d="M65.8 61.6H63.8V63.6H65.8V61.6Z" fill="black"/>
<path d="M70.4 61.6H68.4V63.6H70.4V61.6Z" fill="black"/>
<path d="M61.3 61.6H59.3V63.6H61.3V61.6Z" fill="black"/>
<path d="M49.0011 12.5404L48.1591 14.5729L49.8221 15.2618L50.6641 13.2292L49.0011 12.5404Z" fill="#004976"/>
<path d="M16.614 25.9322L15.925 27.595L17.9573 28.4372L18.6464 26.7744L16.614 25.9322Z" fill="#004976"/>
<path d="M31.0129 12.5334L29.3501 13.2226L30.1925 15.255L31.8553 14.5657L31.0129 12.5334Z" fill="#004976"/>
<path d="M59.2 14.3C57.5 14.3 56.1 15.7 56.1 17.4C56.1 17.9 56.2 18.3 56.4 18.7L56.5 18.9L56.4 19L52 23.4L51.8 23.2C50.6 22.1 49.3 21.3 47.9 20.6L47.7 20.5L48.8 18L47 17.3L46 19.9L45.8 19.8C44.3 19.3 42.7 19 41.1 18.9H40.9V11.5L41.1 11.4C42.4 11 43.2 9.80002 43.2 8.50002C43.2 6.80002 41.8 5.40002 40.1 5.40002C38.4 5.40002 37 6.80002 37 8.50002C37 9.80002 37.8 11 39.1 11.4L39.3 11.5V18.9H39.1C37.5 19 35.9 19.3 34.4 19.8L34 19.9L33 17.3L31.3 18L32.4 20.5L32.2 20.6C30.8 21.3 29.4 22.2 28.3 23.2L28.1 23.4L23.6 18.9L23.7 18.7C23.9 18.3 24 17.8 24 17.4C24 15.7 22.6 14.3 20.9 14.3C19.2 14.3 17.8 15.7 17.8 17.4C17.8 19.1 19.2 20.5 20.9 20.5C21.4 20.5 21.8 20.4 22.2 20.2L22.4 20.1L26.9 24.6L26.7 24.8C25.6 26 24.8 27.3 24.1 28.7L23.9 29L21.4 27.9L20.7 29.5L23.2 30.6L23.1 30.8C22.5 32.7 22.1 34.6 22.1 36.6C22.1 46.4 30.1 54.4 39.9 54.4C49.7 54.4 57.7 46.4 57.7 36.6C57.7 34.7 57.4 32.7 56.7 30.8L56.6 30.6L59.1 29.5L58.4 27.9L56.1 29L56 28.8C55.3 27.4 54.4 26 53.4 24.9L53.2 24.7L53.3 24.6L57.7 20.2L57.9 20.3C58.3 20.5 58.8 20.6 59.2 20.6C60.9 20.6 62.3 19.2 62.3 17.5C62.3 15.8 60.9 14.3 59.2 14.3ZM20.8 18.8C20 18.8 19.4 18.2 19.4 17.4C19.4 16.6 20 16 20.8 16C21.6 16 22.2 16.6 22.2 17.4C22.2 18.2 21.6 18.8 20.8 18.8ZM38.6 8.40002C38.6 7.60002 39.2 7.00002 40 7.00002C40.8 7.00002 41.4 7.60002 41.4 8.40002C41.4 9.20002 40.8 9.80002 40 9.80002C39.2 9.80002 38.6 9.10002 38.6 8.40002ZM25.1 42.6C24.3 40.7 23.9 38.7 23.9 36.6C23.9 31.3 26.5 26.4 30.9 23.4L31.1 23.3L34.6 26.8C35.3 27.5 35.8 28.5 35.8 29.6C35.8 31.4 34.6 32.9 32.9 33.4L31.9 33.7C29.5 34.4 27.9 36.6 27.9 39C27.9 40.1 27.4 41.1 26.6 41.9L25.3 43L25.1 42.6ZM48.2 50.4C45.7 51.9 42.9 52.7 40 52.7C37 52.7 34 51.8 31.5 50.2L31.2 50L33 48.2C34.4 46.8 35.2 44.8 35.2 42.8V41.1C35.2 40.3 35.8 39.7 36.6 39.7C37.4 39.7 38 40.3 38 41.1C38 44.1 40.4 46.5 43.4 46.5H43.6C44.7 46.5 45.7 47 46.4 47.8L48.5 50.3L48.2 50.4ZM53.4 45.4C52.5 46.8 51.4 48 50.1 49.1L49.9 49.3L47.7 46.7C46.7 45.5 45.2 44.8 43.6 44.8H43.4C41.4 44.8 39.8 43.2 39.8 41.2C39.8 39.5 38.4 38.1 36.7 38.1C35 38.1 33.6 39.5 33.6 41.2V42.9C33.6 44.5 33 46 31.9 47.1L29.9 49.1L29.7 48.9C28.3 47.7 27.2 46.4 26.3 44.8L26.2 44.6L27.8 43.2C29 42.2 29.7 40.6 29.7 39C29.7 37.3 30.8 35.8 32.4 35.4L33.4 35.1C35.8 34.4 37.5 32.1 37.5 29.6C37.5 28.1 36.9 26.6 35.8 25.6L32.6 22.4L32.9 22.2C35.1 21.1 37.5 20.5 39.9 20.5C40.4 20.5 40.9 20.5 41.4 20.6H41.8L41.2 21.9C40.5 23.2 40.2 24.7 40.2 26.2C40.2 29.4 41.8 32.4 44.5 34.2L45.1 34.6C46.2 35.4 46.9 36.6 46.9 38C46.9 40.2 48.1 42.1 50 43.2L53.5 45.1L53.4 45.4ZM56.1 36.6C56.1 39 55.6 41.3 54.6 43.4L54.5 43.6L51 41.7C49.7 41 48.9 39.6 48.9 38.1C48.9 36.1 47.9 34.3 46.3 33.2L45.7 32.8C43.5 31.3 42.2 28.9 42.2 26.2C42.2 25 42.5 23.8 43 22.7L43.9 21H44.1C51.1 22.9 56.1 29.2 56.1 36.6ZM59.2 18.8C58.4 18.8 57.8 18.2 57.8 17.4C57.8 16.6 58.4 16 59.2 16C60 16 60.6 16.6 60.6 17.4C60.6 18.2 60 18.8 59.2 18.8Z" fill="#004976"/>
<path d="M63.3705 25.9511L61.3381 26.7933L62.0272 28.4561L64.0595 27.614L63.3705 25.9511Z" fill="#004976"/>
</svg>
